X: 1
T: Santa Lucia
O: Italy (Norwegian lyrics)
Z: John Chambers <jc:trillian.mit.edu>
R: waltz
L: 1/8
M: 3/4
K: A
[| "A"E2 E3 A | "E7"AG G4 | "D"D2 D3 F | "A"F2 {E}E4 |
w: 1.~Svart sen-ker nat-ten seg i stall og stu-er.
w: 2.~Nat-ten er m\ork og stum, med ett det su-ser,
w: 3.~"M\or-ket skal flyk-te snart fra Jor-dens da-ler."
| "F#7"C2 F2 E2 | "Bm"E_ED4 | "E7"D2 C2 B,2 | "A"F2 E4 |]
w: So-len har g\aatt sin vei, sky-ge-ne tru-er.
w: i al-le tys-te rum som ving-ger bru-ser.
w: Slik hun et un-der-fullt ord til oss ta-ler.
|: "A"c2 B2 A2 | "Bm"GF B4 | "D"B2 A2 F2 | "A"^DE A4 |
w: Inn i v\aart m\or-ke hus sti-ger med ten-te lys,
w: Se, p\aa v\aar ter-skel st\aar, hvit-kledd med lys i h\aar,
w: Da-gen skal at-ter ny sti-ge av r\o-de sky,
| "A"(cA) (AE) (EC) | "Bm"(DB) B4 |1 "E7"B2 F3 G | B2 "A"A4 :|2 "E7"B2 c3 B | B2 "A"A4 :|
w: San-*ta* Lu-*ci-*a, San-ta Lu-ci-a. San-ta Lu-ci-a.
